Gurmukhi/0A5C.svg

<svg enable-background="new 0 0 336 592" viewBox="0 0 336 592" xmlns="http://www.w3.org/2000/svg"><path d="m134.080276 257.707214c19.690506-3.907547 38.548523-1.530944 56.992768 4.389893 4.362854 1.400574 7.204208.803039 10.191986-2.202179 11.012222-11.076447 13.614197-24.297699 10.290863-39.142548-.714951-3.193664-2.799637-3.628387-5.560288-3.615341-13.999069.066132-27.998596.038376-41.997955.039597-25.832168.002258-51.664856-.078919-77.495994.084991-4.112038.026108-6.571312-1.090835-7.761429-5.180343-1.020256-3.505875-2.655243-6.827836-3.844353-10.290879-1.518272-4.421631-.238533-6.304825 4.349274-6.656067 1.160576-.088867 2.332046-.046051 3.498512-.045883 61.330574.009064 122.661293.076294 183.991447-.074814 4.964692-.012237 7.804505 1.346817 9.032135 6.257981.720978 2.884475 2.197907 5.571853 3.196045 8.396896 1.99527 5.647186.800537 7.434906-5.088653 7.469284-10.665833.062256-21.334351.145371-31.997391-.035934-4.323044-.073517-5.500092.834304-4.919434 5.696289 2.273346 19.035522-4.407104 34.621399-19.703292 46.370544-.772339.593262-1.536347 1.197327-3.019852 2.354614 15.82486 9.359803 27.889313 21.179566 29.077087 40.394928 1.189713 19.246643-7.642013 33.170105-24.302124 43.055634 7.168824 8.650482 13.935334 16.830627 20.720871 24.994904 2.236527 2.690979 4.549286 5.318817 6.772599 8.020446.938873 1.140839 2.04486 2.315308 1.08255 4.005799-.767777 1.348755-2.070038 1.596008-3.439316 1.58908-5.998688-.030426-11.99881-.193145-17.995056-.09732-2.67479.042755-3.780243-1.76474-5.075333-3.466705-6.154953-8.088776-12.396011-16.115632-18.372849-24.334351-2.059051-2.83139-3.933776-4.061249-7.769989-3.52829-21.005477 2.918366-41.028961-1.420593-61.87323-9.608093 1.651536 2.270447 2.570054 3.623901 3.579178 4.906036 7.625641 9.68869 15.296982 19.341645 22.87703 29.065766 1.148834 1.473755 3.132095 2.840332 1.94136 5.216156-1.103348 2.201477-3.263687 1.968017-5.235809 2.115905-.165924.012452-.336502-.013214-.499313.013306-12.969117 2.11026-21.701615-1.63089-27.994843-14.588714-8.044182-16.56308-18.706017-31.867493-28.460426-47.577332-2.105706-3.391296-1.6017-5.457184 1.062507-8.168335 2.781243-2.830292 4.9431-2.771973 8.176453-.770813 22.383667 13.853088 46.948929 19.440918 73.02597 17.733856 12.120972-.793487 23.757187-4.202942 32.103867-14.031921 9.058868-10.667664 7.831955-24.979492-2.691391-34.983734-2.54808-2.422394-5.466721-4.337433-8.485229-6.137451-3.371354-2.010468-6.641327-2.192933-10.470505-1.045441-16.734787 5.014892-33.778488 7.448089-51.26677 5.031036-5.479095-.757263-10.815857-2.057007-15.627021-4.885193-10.263291-6.033111-10.186402-17.710724.220474-23.43695 2.592666-1.426575 5.557228-2.177307 8.764869-3.29831z"/></svg>

<svg version="1.1" id="Layer_1" xmlns="http://www.w3.org/2000/svg" xmlns:xlink="http://www.w3.org/1999/xlink" x="0px" y="0px"
	 width="100%" viewBox="0 0 336 592" enable-background="new 0 0 336 592" xml:space="preserve">
<path fill="#000000" opacity="1.000000" stroke="none" 
	d="
M134.080276,257.707214 
	C153.770782,253.799667 172.628799,256.176270 191.073044,262.097107 
	C195.435898,263.497681 198.277252,262.900146 201.265030,259.894928 
	C212.277252,248.818481 214.879227,235.597229 211.555893,220.752380 
	C210.840942,217.558716 208.756256,217.123993 205.995605,217.137039 
	C191.996536,217.203171 177.997009,217.175415 163.997650,217.176636 
	C138.165482,217.178894 112.332794,217.097717 86.501656,217.261627 
	C82.389618,217.287735 79.930344,216.170792 78.740227,212.081284 
	C77.719971,208.575409 76.084984,205.253448 74.895874,201.790405 
	C73.377602,197.368774 74.657341,195.485580 79.245148,195.134338 
	C80.405724,195.045471 81.577194,195.088287 82.743660,195.088455 
	C144.074234,195.097519 205.404953,195.164749 266.735107,195.013641 
	C271.699799,195.001404 274.539612,196.360458 275.767242,201.271622 
	C276.488220,204.156097 277.965149,206.843475 278.963287,209.668518 
	C280.958557,215.315704 279.763824,217.103424 273.874634,217.137802 
	C263.208801,217.200058 252.540283,217.283173 241.877243,217.101868 
	C237.554199,217.028351 236.377151,217.936172 236.957809,222.798157 
	C239.231155,241.833679 232.550705,257.419556 217.254517,269.168701 
	C216.482178,269.761963 215.718170,270.366028 214.234665,271.523315 
	C230.059525,280.883118 242.123978,292.702881 243.311752,311.918243 
	C244.501465,331.164886 235.669739,345.088348 219.009628,354.973877 
	C226.178452,363.624359 232.944962,371.804504 239.730499,379.968781 
	C241.967026,382.659760 244.279785,385.287598 246.503098,387.989227 
	C247.441971,389.130066 248.547958,390.304535 247.585648,391.995026 
	C246.817871,393.343781 245.515610,393.591034 244.146332,393.584106 
	C238.147644,393.553680 232.147522,393.390961 226.151276,393.486786 
	C223.476486,393.529541 222.371033,391.722046 221.075943,390.020081 
	C214.920990,381.931305 208.679932,373.904449 202.703094,365.685730 
	C200.644043,362.854340 198.769318,361.624481 194.933105,362.157440 
	C173.927628,365.075806 153.904144,360.736847 133.059875,352.549347 
	C134.711411,354.819794 135.629929,356.173248 136.639053,357.455383 
	C144.264694,367.144073 151.936035,376.797028 159.516083,386.521149 
	C160.664917,387.994904 162.648178,389.361481 161.457443,391.737305 
	C160.354095,393.938782 158.193756,393.705322 156.221634,393.853210 
	C156.055710,393.865662 155.885132,393.839996 155.722321,393.866516 
	C142.753204,395.976776 134.020706,392.235626 127.727478,379.277802 
	C119.683296,362.714722 109.021461,347.410309 99.267052,331.700470 
	C97.161346,328.309174 97.665352,326.243286 100.329559,323.532135 
	C103.110802,320.701843 105.272659,320.760162 108.506012,322.761322 
	C130.889679,336.614410 155.454941,342.202240 181.531982,340.495178 
	C193.652954,339.701691 205.289169,336.292236 213.635849,326.463257 
	C222.694717,315.795593 221.467804,301.483765 210.944458,291.479523 
	C208.396378,289.057129 205.477737,287.142090 202.459229,285.342072 
	C199.087875,283.331604 195.817902,283.149139 191.988724,284.296631 
	C175.253937,289.311523 158.210236,291.744720 140.721954,289.327667 
	C135.242859,288.570404 129.906097,287.270660 125.094933,284.442474 
	C114.831642,278.409363 114.908531,266.731750 125.315407,261.005524 
	C127.908073,259.578949 130.872635,258.828217 134.080276,257.707214 
z"/>
</svg>
